brandFactory_export/2.Regular/Documento_Archivo PNG_2Regular.svg

<?xml version="1.0" encoding="UTF-8"?>
<svg width="24px" height="24px" viewBox="0 0 24 24" version="1.1" xmlns="http://www.w3.org/2000/svg" xmlns:xlink="http://www.w3.org/1999/xlink">
    <title>2.Regular/Documento_Archivo PNG_2Regular</title>
    <g id="Symbols" stroke="none" stroke-width="1" fill="none" fill-rule="evenodd">
        <g id="2.Regular/Documento_Archivo-PNG_2Regular" fill="#5CB615" fill-rule="nonzero">
            <path d="M16.2420168,0.0302521008 C16.5210084,0.0302521008 16.7831933,0.134453782 16.9781513,0.329411765 L23.3344538,6.48067227 C23.4722689,6.61176471 23.5495798,6.77310924 23.6,6.94453782 C23.6369748,7.03193277 23.6571429,7.12941176 23.6571429,7.2302521 L23.6571429,21.9966387 C23.6571429,22.897479 22.8840336,23.6571429 21.9663866,23.6571429 L7.34789916,23.6571429 C6.44705882,23.6571429 5.65714286,22.8806723 5.65714286,21.9966387 L5.69747899,18.6689076 L2.93445378,18.6689076 C1.33445378,18.6689076 0.0302521011,17.3647059 0.0302521011,15.7613445 L0.0302521011,10.8470588 C0.0302521011,9.24369748 1.33445378,7.93613445 2.93445378,7.93613445 L5.65378151,7.93613445 L5.65378151,1.6907563 C5.65378151,0.820168067 6.45714286,0.0302521008 7.34453782,0.0302521008 L16.2420168,0.0302521008 Z M15.189916,1.49243697 L7.34789916,1.49243697 C7.2605042,1.49243697 7.12268908,1.62352941 7.11596639,1.69411765 L7.11596639,7.93613445 L14.7529412,7.93613445 C16.3563025,7.93613445 17.6571429,9.24369748 17.6571429,10.8470588 L17.6571429,15.7613445 C17.6571429,17.3647059 16.3529412,18.6689076 14.7529412,18.6689076 L7.15630252,18.6689076 L7.11596639,22.0033613 C7.11596639,22.0638655 7.23697479,22.194958 7.34789916,22.194958 L21.9663866,22.194958 L21.9663866,22.1983193 C22.0840336,22.1983193 22.1983193,22.0840336 22.1983193,21.9966387 L22.1983193,8.27563025 L19.4218487,8.27563025 C18.205042,8.27563025 17.1529412,7.8789916 16.3831933,7.13277311 C15.6033613,6.37647059 15.189916,5.34789916 15.189916,4.15462185 L15.189916,1.49243697 Z M14.7529412,9.39495798 L2.93781513,9.39495798 C2.13781513,9.39495798 1.48907563,10.0470588 1.48907563,10.8470588 L1.48907563,15.7613445 C1.48907563,16.5613445 2.13781513,17.210084 2.93781513,17.210084 L14.7529412,17.210084 C15.5529412,17.210084 16.2016807,16.5579832 16.2016807,15.7613445 L16.2016807,10.8470588 C16.2016807,10.0470588 15.5529412,9.39495798 14.7529412,9.39495798 Z M13.5294118,11.1159664 C13.9663866,11.1159664 14.4907563,11.2067227 14.7731092,11.3277311 L14.6453782,12.0638655 C14.3294118,11.9731092 13.9495798,11.902521 13.6,11.902521 C12.7092437,11.902521 12.3428571,12.4302521 12.3428571,13.3915966 C12.3428571,13.8890756 12.4067227,14.2957983 12.6016807,14.5647059 C12.7630252,14.789916 13.0285714,14.9210084 13.4521008,14.9210084 C13.6134454,14.9210084 13.8319328,14.9008403 13.9865546,14.8773109 L13.9865546,13.9495798 L13.3680672,13.9495798 L13.3680672,13.2268908 L14.9882353,13.2268908 L14.9882353,15.4789916 C14.5680672,15.6067227 13.8991597,15.7042017 13.4151261,15.7042017 C11.8319328,15.7008403 11.297479,14.8302521 11.297479,13.4319328 C11.297479,12.0504202 12.0268908,11.1159664 13.5294118,11.1159664 Z M4.33613445,11.2 C5.02521008,11.2 5.46554622,11.297479 5.74789916,11.5596639 C5.98655462,11.7781513 6.10420168,12.1210084 6.10420168,12.5915966 C6.10420168,13.0621849 5.99327731,13.4184874 5.77478992,13.6638655 C5.51596639,13.9529412 5.11596639,14.0907563 4.53781513,14.0907563 L3.82857143,14.0907563 L3.82857143,15.6134454 L2.82016807,15.6134454 L2.82016807,11.2 L4.33613445,11.2 Z M7.55630252,11.2 L9.64705882,14.0235294 L9.64705882,11.2 L10.5310924,11.2 L10.5310924,15.610084 L9.72436975,15.610084 L7.69747899,12.9344538 L7.69747899,15.610084 L6.81344538,15.610084 L6.81344538,11.2 L7.55630252,11.2 Z M4.29915966,11.9294118 L3.82857143,11.9294118 L3.82857143,13.3344538 L4.32268908,13.3344538 C4.64537815,13.3344538 4.77983193,13.2907563 4.91092437,13.1663866 C5.02857143,13.0487395 5.08571429,12.8638655 5.08571429,12.605042 C5.08571429,12.3663866 5.03529412,12.1915966 4.91764706,12.0840336 C4.79663866,11.9731092 4.60840336,11.9294118 4.29915966,11.9294118 Z M16.6487395,2.03361345 L16.6487395,4.1512605 C16.6487395,4.93781513 16.907563,5.60672269 17.394958,6.08067227 C17.892437,6.56134454 18.5915966,6.81344538 19.4218487,6.81344538 L21.5832521,6.8132521 L16.6487395,2.03361345 Z" id="Documento_Archivo-PNG_2Regular"></path>
        </g>
    </g>
</svg>

<svg width="24" height="24" viewBox="0 0 24 24" xmlns="http://www.w3.org/2000/svg"><path d="M16.242.03c.279 0 .541.104.736.3l6.356 6.15c.138.132.216.293.266.465a.735.735 0 01.057.285v14.767c0 .9-.773 1.66-1.69 1.66H7.346c-.9 0-1.69-.776-1.69-1.66l.04-3.328H2.934A2.91 2.91 0 01.03 15.76v-4.914a2.913 2.913 0 012.904-2.91h2.72V1.69c0-.87.803-1.66 1.69-1.66h8.898zM15.19 1.492H7.348c-.087 0-.225.132-.232.202v6.242h7.637a2.91 2.91 0 012.904 2.911v4.914a2.91 2.91 0 01-2.904 2.908H7.156l-.04 3.334c0 .06.121.192.232.192h14.618v.003c.118 0 .232-.114.232-.201V8.276h-2.776c-1.217 0-2.27-.397-3.039-1.143-.78-.757-1.193-1.785-1.193-2.978V1.492zm-.437 7.903H2.938c-.8 0-1.449.652-1.449 1.452v4.914c0 .8.649 1.45 1.449 1.45h11.815c.8 0 1.449-.653 1.449-1.45v-4.914c0-.8-.65-1.452-1.45-1.452zm-1.224 1.721c.437 0 .962.09 1.244.212l-.128.736a3.95 3.95 0 00-1.045-.161c-.89 0-1.257.527-1.257 1.489 0 .497.064.904.259 1.173.161.225.427.356.85.356.161 0 .38-.02.535-.044v-.927h-.619v-.723h1.62v2.252c-.42.128-1.089.225-1.573.225-1.583-.003-2.118-.874-2.118-2.272 0-1.382.73-2.316 2.232-2.316zm-9.193.084c.69 0 1.13.097 1.412.36.239.218.356.561.356 1.032 0 .47-.11.826-.33 1.072-.258.289-.658.427-1.236.427h-.71v1.522H2.82V11.2h1.516zm3.22 0l2.091 2.824V11.2h.884v4.41h-.807l-2.027-2.676v2.676h-.884V11.2h.743zm-3.257.73h-.47v1.404h.494c.322 0 .457-.043.588-.168.118-.117.175-.302.175-.561 0-.239-.05-.413-.168-.521-.121-.11-.31-.155-.619-.155zm12.35-9.896V4.15c0 .787.259 1.456.746 1.93.497.48 1.197.732 2.027.732h2.161l-4.934-4.78z" fill="#5CB615" fill-rule="nonzero"/></svg>
